X: 6
T:Cajun Two-Step
M:2/4
L:1/8
R:Polka
N:http://www.lesession.co.uk
Z:Steve Mansfield 1998-2001
K:G
g/a/ |: bb/a/ gg/a/ | bb/a/ gb | aa/(a/ a/)g/ a | bb/a/ gg/a/ |
bb/a/ gg/a/ | bb/a/ gb | aa/(a/ a/)g/ f |1 gb ga :|2 gb d'b
|: c'c'/(c'/ c'/)b/ a | bb/(b/ b/)a/ g | aa/(a/ a/)g/ f | gb d'b |
c'c'/(c'/ c'/)b/ a | bb/(b/ b/)a/ g | aa/(a/ a/)g/ f
|1 gb gb :|2 gb g ||

